X: 34035
T: Reel De Champs De Bleuets
R: reel
M: 4/4
K: Amajor
e3 d cAAc|efed cABc|d2fd c2 ec|B2 BB B3d|
efed cAAc|efed cABc|d2fd c2 ec|B2 AB cAA2:|
e3f =g3f|efed cA A2|e3f =g2Bc|ded=c B=G G2|
e3f =g3f|efed cABc|d2fd c2 ec|B2 AB cAA2:|

